X: 205
T: Sally Sloane's Mazurka
B: australian dance tunes
M:3/4
L:1/8
R: Mazurka
Q: 1/4=100
K:D
V:1 
AG|:F2 FG AF|G2 e3 d|c2 cd cB|A2 AB AG|!
F2 FG AF|G2 e3 d|c2 cA Bc|1d4 AG:|2d4 de||!
|:f2 fa gf|e2 ed cd|e2 ef ec|dA FA de|!
f2 fa gf|e2 ed cd|e2 eg fe|1d2 A2 de:|2d4||
% abcbook-tune_id 62a078509d12fa0711196c31


% abcbook-boost 0
% abcbook-tablature 
% abcbook-transpose 
% abcbook-lastupdated 1654683750321
% abcbook-soundfonts 
% abcbook-repeats 1


